resources/svg/d3.svg

<svg width="15" height="15" viewBox="0 0 15 15" fill="none" xmlns="http://www.w3.org/2000/svg">
<path fill-rule="evenodd" clip-rule="evenodd" d="M1.5 2H0V1H1.5C5.08985 1 8 3.91015 8 7.5C8 11.0899 5.08985 14 1.5 14H0V13H1.5C4.53757 13 7 10.5376 7 7.5C7 4.46243 4.53757 2 1.5 2ZM11.5 2H7V1H11.5C13.433 1 15 2.567 15 4.5C15 5.77316 14.3202 6.88755 13.3038 7.5C14.3202 8.11245 15 9.22684 15 10.5C15 12.433 13.433 14 11.5 14H7V13H11.5C12.8807 13 14 11.8807 14 10.5C14 9.11929 12.8807 8 11.5 8H9V7H11.5C12.8807 7 14 5.88071 14 4.5C14 3.11929 12.8807 2 11.5 2Z" fill="black"/>
</svg>

<svg viewBox="0 0 15 15" fill="none" xmlns="http://www.w3.org/2000/svg" fill="currentColor"><path fill-rule="evenodd" clip-rule="evenodd" d="M1.5 2H0V1h1.5a6.5 6.5 0 010 13H0v-1h1.5a5.5 5.5 0 100-11zm10 0H7V1h4.5a3.5 3.5 0 011.804 6.5A3.5 3.5 0 0111.5 14H7v-1h4.5a2.5 2.5 0 000-5H9V7h2.5a2.5 2.5 0 000-5z" fill="currentColor"/></svg>
